X:16
T:Road to Youghal
S:Trad, arr. Paddy O'Brien 
Z:Set: Road to Youghal/Conlan's Well/Holly Bush
R:reel
E:9
I:speed 350
M:C|
K:G
B|~d2 Bd ABGE|DGBG AE ~E2|GEDE GABd|gbaf gedB|\
GB ~B2 eBdB|AcBG AGEG|gfgd (3efg dB|DEGA BGG:|\
d|gfge ~d2BG|ABcd eAAB|dg~g2 dcBG|FGAc BcBA|\
GB~B2 GBdB|cBcd eAAf|gfgd (3efg dB|DEGA BGG:|**

